X:130
T:Trip and Go
T:Tune: Boate Man
M:6/8
L:1/8
K:C
G,3 |: "C" G E2 G2 G | "C" G E2 G2 G | "Am" c2 c "Em" B2 A | "Dm" d3 "G" D3 |
"C" G E2 "G" G2 G | "C" G E2 "Em" G2 G | "Am" c2 d "G" e d2 | "C" c3 C3 :|
|: "Am" c2 d e2 d | "Am" c2 B "F" A2 G | "Dm" F2 F "Am" E2 D | "G" d3 D3 |
"C" G E2 "G" G2 G | "C" G E2 "Em" G2 G | "Am" c2 d "G" e d2 | "C" c3 C3 :|
%
%
